X:148
T: Mei ai laodong hao gege
N: C0248
O: China, Hainan, Danxian
S: II, 404]
N: Die zweite Strophe endet -5_0_0__  statt -5___
R: Xiaodiao, Diaosheng. Biaoda aiqing]
M: 2/4
L: 1/16
K: A
cecBA3F | F2FAB4
cecBA3F | F2FAB2c2 | BAFAB2z2
B2B2e2ce | B2B2e2ce | B2cBA2BA | F2z2
FABA | F2EFABAF | E8

